artwork/resources/intui/icons/shell/tool-windows/app-quality-insights_dark.svg

<svg width="16" height="16" viewBox="0 0 16 16" fill="none" xmlns="http://www.w3.org/2000/svg">
<path d="M11.0858 2H4.91421C4.649 2 4.39464 2.10536 4.20711 2.29289L1.64198 4.85802C1.27784 5.22216 1.24978 5.80331 1.57716 6.20083L7.22807 13.0627C7.62808 13.5484 8.37192 13.5484 8.77193 13.0627L14.4228 6.20083C14.7502 5.80331 14.7222 5.22216 14.358 4.85802L11.7929 2.29289C11.6054 2.10536 11.351 2 11.0858 2Z" stroke="#CED0D6" stroke-linecap="round"/>
<path d="M1.5 6H14.5" stroke="#CED0D6" stroke-linecap="round"/>
<path d="M7 2L5.20742 5.58517C5.07587 5.84826 5.06683 6.15593 5.1827 6.4263L8 13" stroke="#CED0D6" stroke-linecap="round"/>
<path d="M9 2L10.7926 5.58517C10.9241 5.84826 10.9332 6.15593 10.8173 6.4263L8 13" stroke="#CED0D6" stroke-linecap="round"/>
</svg>

<svg width="16" height="16" viewBox="0 0 16 16" fill="none" xmlns="http://www.w3.org/2000/svg"><path d="M11.086 2H4.914a1 1 0 0 0-.707.293L1.642 4.858a1 1 0 0 0-.065 1.343l5.651 6.862a1 1 0 0 0 1.544 0l5.65-6.862a1 1 0 0 0-.064-1.343l-2.565-2.565A1 1 0 0 0 11.086 2zM1.5 6h13" stroke="#CED0D6" stroke-linecap="round"/><path d="M7 2L5.207 5.585a1 1 0 0 0-.024.841L8 13M9 2l1.793 3.585a1 1 0 0 1 .024.841L8 13" stroke="#CED0D6" stroke-linecap="round"/></svg>
